X:65
T:Lady Coventry’s Minuet. TJD.65
M:3/4
L:1/4
Q:1/4=120
S:T.J.Dixon MS2, Lincolnshire, early 19thC
R:minuet
N:Tunes at opposite end of MS book from here
A:Lincolnshire, Holton le Moor
Z:vmp.R.Greig2010
K:G
GG(3G/A/B/|{B/}”tr”A2G|BB(3B/c/d/|{d}c2B|!
d2(g/>e/)|d2(g/>e/)|(e/d/) (d/c/) (c/B/)|(BA2):|!
|:(3d/e/d/dc|Bcd|”no triplet sign in MS”(3d/e/d/dc|B>cd|!
(gf)e|dfg|(3e/d/c/ BA|G3:|]

